raw/symbols/gbp.svg

<svg xmlns="http://www.w3.org/2000/svg" width="42" height="42" fill="none"><mask id="a" width="42" height="42" x="0" y="0" maskUnits="userSpaceOnUse" style="mask-type:alpha"><circle cx="21" cy="21" r="21" fill="#D9D9D9"/></mask><g mask="url(#a)"><path fill="#012169" d="M-21 0v42h84V0h-84Z"/><path fill="#000" d="m-21 0 84 42-84-42Zm84 0-84 42L63 0Z"/><path stroke="#fff" stroke-width="8.4" d="m-21 0 84 42m0-42-84 42"/><path fill="#000" d="m-21 0 84 42-84-42Zm84 0-84 42L63 0Z"/><path stroke="#C8102E" stroke-width="5.6" d="m-21 0 84 42m0-42-84 42"/><path fill="#000" d="M21 0v42V0Zm-42 21h84-84Z"/><path stroke="#fff" stroke-width="14" d="M21 0v42m-42-21h84"/><path fill="#000" d="M21 0v42V0Zm-42 21h84-84Z"/><path stroke="#C8102E" stroke-width="8.4" d="M21 0v42m-42-21h84"/></g></svg>

<svg width="42" height="42" viewBox="0 0 42 42" fill="none" xmlns="http://www.w3.org/2000/svg">
<mask id="mask0_3145_261640" style="mask-type:alpha" maskUnits="userSpaceOnUse" x="0" y="0" width="42" height="42">
<circle cx="21" cy="21" r="21" fill="#D9D9D9"/>
</mask>
<g mask="url(#mask0_3145_261640)">
<path d="M-21 0V42H63V0H-21Z" fill="#012169"/>
<path d="M-21 0L63 42L-21 0ZM63 0L-21 42L63 0Z" fill="black"/>
<path d="M-21 0L63 42M63 0L-21 42" stroke="white" stroke-width="8.4"/>
<path d="M-21 0L63 42L-21 0ZM63 0L-21 42L63 0Z" fill="black"/>
<path d="M-21 0L63 42M63 0L-21 42" stroke="#C8102E" stroke-width="5.6"/>
<path d="M21 0V42V0ZM-21 21H63H-21Z" fill="black"/>
<path d="M21 0V42M-21 21H63" stroke="white" stroke-width="14"/>
<path d="M21 0V42V0ZM-21 21H63H-21Z" fill="black"/>
<path d="M21 0V42M-21 21H63" stroke="#C8102E" stroke-width="8.4"/>
</g>
</svg>
